dist/images/icons/files/ai.svg

<svg enable-background="new 0 0 32 32" height="512" viewBox="0 0 32 32" width="512" xmlns="http://www.w3.org/2000/svg"><g id="BG"><path d="m26 32h-20c-3.314 0-6-2.686-6-6v-20c0-3.314 2.686-6 6-6h20c3.314 0 6 2.686 6 6v20c0 3.314-2.686 6-6 6z" fill="#fff9dd"/></g><g id="bold"><g fill="#ffd200"><path d="m14.667 18.333c-.275 0-.333.272-.333.5v.167h.666v-.167c0-.228-.058-.5-.333-.5z"/><path d="m20.833 8h-9.667c-1.011 0-1.833.822-1.833 1.833v12.333c0 1.011.822 1.833 1.833 1.833h9.667c1.011 0 1.833-.822 1.833-1.833v-12.333c.001-1.011-.822-1.833-1.833-1.833zm-4.833 12.833c0 .276-.224.5-.5.5s-.5-.224-.5-.5v-.833h-.667v.833c0 .276-.224.5-.5.5s-.5-.224-.5-.5v-2c0-.883.548-1.5 1.333-1.5s1.334.617 1.334 1.5zm2.167 0c0 .276-.224.5-.5.5s-.5-.224-.5-.5v-3c0-.276.224-.5.5-.5s.5.224.5.5z"/></g></g></svg>

<svg height="512" viewBox="0 0 32 32" width="512" xmlns="http://www.w3.org/2000/svg"><path d="M26 32H6a6 6 0 01-6-6V6a6 6 0 016-6h20a6 6 0 016 6v20a6 6 0 01-6 6z" fill="#fff9dd"/><g fill="#ffd200"><path d="M14.667 18.333c-.275 0-.333.272-.333.5V19H15v-.167c0-.228-.058-.5-.333-.5z"/><path d="M20.833 8h-9.667a1.835 1.835 0 00-1.833 1.833v12.333c0 1.011.822 1.833 1.833 1.833h9.667a1.835 1.835 0 001.833-1.833V9.833A1.834 1.834 0 0020.833 8zM16 20.833a.5.5 0 01-1 0V20h-.667v.833a.5.5 0 01-1 0v-2c0-.883.548-1.5 1.333-1.5S16 17.95 16 18.833zm2.167 0a.5.5 0 01-1 0v-3a.5.5 0 011 0z"/></g></svg>
